dist/images/prev-icon.svg

<?xml version="1.0" encoding="UTF-8"?>
<svg width="66px" height="66px" viewBox="0 0 66 66" version="1.1" xmlns="http://www.w3.org/2000/svg" xmlns:xlink="http://www.w3.org/1999/xlink">
    <!-- Generator: Sketch 53.2 (72643) - https://sketchapp.com -->
    <title>Group</title>
    <desc>Created with Sketch.</desc>
    <defs>
        <linearGradient x1="50%" y1="0%" x2="50%" y2="100%" id="linearGradient-1">
            <stop stop-color="#61747B" offset="0%"></stop>
            <stop stop-color="#4C5769" offset="100%"></stop>
        </linearGradient>
        <linearGradient x1="50%" y1="0%" x2="50%" y2="100%" id="linearGradient-2">
            <stop stop-color="#6A7888" offset="0%"></stop>
            <stop stop-color="#3E4853" offset="100%"></stop>
        </linearGradient>
        <linearGradient x1="50%" y1="0%" x2="50%" y2="100%" id="linearGradient-3">
            <stop stop-color="#C5D6DE" offset="0%"></stop>
            <stop stop-color="#EBF1F2" offset="100%"></stop>
        </linearGradient>
        <path d="M47.7687618,17.2474963 C47.0181674,16.8601805 46.1088216,16.9311391 45.4248003,17.4345018 L36.2055112,24.1984843 L36.2055112,19.2742518 C36.2055112,18.4190526 35.7299884,17.6355512 34.9750046,17.2474963 C34.2244102,16.8601805 33.3157959,16.9311391 32.6317747,17.4345018 L13.9283668,31.1590814 C13.3453027,31.5863114 13,32.2707664 13,32.9980922 C13,33.7261572 13.3438395,34.4098731 13.9283668,34.8385814 L32.6317747,48.5653785 C33.0224349,48.8529087 33.4884472,49 33.9544596,49 C34.3041517,49 34.6538438,48.9179541 34.9757361,48.7509057 C35.7299884,48.3635899 36.2062428,47.5800885 36.2062428,46.7263676 L36.2062428,41.7991785 L45.4255319,48.5653785 C45.8169237,48.8529087 46.282936,49 46.7489484,49 C47.0986405,49 47.447601,48.9179541 47.770225,48.7509057 C48.5244772,48.3635899 49,47.5800885 49,46.7263676 L49,19.2735127 C48.9978053,18.4190526 48.5230141,17.6355512 47.7687618,17.2474963 L47.7687618,17.2474963 Z" id="path-4"></path>
        <filter x="-5.6%" y="-9.4%" width="111.1%" height="112.5%" filterUnits="objectBoundingBox" id="filter-5">
            <feOffset dx="0" dy="-1" in="SourceAlpha" result="shadowOffsetOuter1"></feOffset>
            <feGaussianBlur stdDeviation="0.5" in="shadowOffsetOuter1" result="shadowBlurOuter1"></feGaussianBlur>
            <feColorMatrix values="0 0 0 0 0   0 0 0 0 0   0 0 0 0 0  0 0 0 0.15 0" type="matrix" in="shadowBlurOuter1"></feColorMatrix>
        </filter>
        <filter x="-8.3%" y="-12.5%" width="116.7%" height="118.8%" filterUnits="objectBoundingBox" id="filter-6">
            <feGaussianBlur stdDeviation="1" in="SourceAlpha" result="shadowBlurInner1"></feGaussianBlur>
            <feOffset dx="0" dy="2" in="shadowBlurInner1" result="shadowOffsetInner1"></feOffset>
            <feComposite in="shadowOffsetInner1" in2="SourceAlpha" operator="arithmetic" k2="-1" k3="1" result="shadowInnerInner1"></feComposite>
            <feColorMatrix values="0 0 0 0 0   0 0 0 0 0   0 0 0 0 0  0 0 0 0.15 0" type="matrix" in="shadowInnerInner1"></feColorMatrix>
        </filter>
    </defs>
    <g id="Page-1" stroke="none" stroke-width="1" fill="none" fill-rule="evenodd">
        <g id="controls" transform="translate(0.000000, -10.000000)">
            <g id="Group" transform="translate(0.000000, 10.000000)">
                <circle id="Oval-2" stroke="url(#linearGradient-2)" fill="url(#linearGradient-1)" cx="33" cy="33" r="32.5"></circle>
                <g id="Shape">
                    <use fill="black" fill-opacity="1" filter="url(#filter-5)" xlink:href="#path-4"></use>
                    <use fill="url(#linearGradient-3)" fill-rule="evenodd" xlink:href="#path-4"></use>
                    <use fill="black" fill-opacity="1" filter="url(#filter-6)" xlink:href="#path-4"></use>
                </g>
            </g>
        </g>
    </g>
</svg>

<svg width="66" height="66" xmlns="http://www.w3.org/2000/svg" xmlns:xlink="http://www.w3.org/1999/xlink"><defs><linearGradient x1="50%" y1="0%" x2="50%" y2="100%" id="b"><stop stop-color="#61747B" offset="0%"/><stop stop-color="#4C5769" offset="100%"/></linearGradient><linearGradient x1="50%" y1="0%" x2="50%" y2="100%" id="a"><stop stop-color="#6A7888" offset="0%"/><stop stop-color="#3E4853" offset="100%"/></linearGradient><linearGradient x1="50%" y1="0%" x2="50%" y2="100%" id="e"><stop stop-color="#C5D6DE" offset="0%"/><stop stop-color="#EBF1F2" offset="100%"/></linearGradient><filter x="-5.6%" y="-9.4%" width="111.1%" height="112.5%" filterUnits="objectBoundingBox" id="c"><feOffset dy="-1" in="SourceAlpha" result="shadowOffsetOuter1"/><feGaussianBlur stdDeviation=".5" in="shadowOffsetOuter1" result="shadowBlurOuter1"/><feColorMatrix values="0 0 0 0 0 0 0 0 0 0 0 0 0 0 0 0 0 0 0.15 0" in="shadowBlurOuter1"/></filter><filter x="-8.3%" y="-12.5%" width="116.7%" height="118.8%" filterUnits="objectBoundingBox" id="f"><feGaussianBlur stdDeviation="1" in="SourceAlpha" result="shadowBlurInner1"/><feOffset dy="2" in="shadowBlurInner1" result="shadowOffsetInner1"/><feComposite in="shadowOffsetInner1" in2="SourceAlpha" operator="arithmetic" k2="-1" k3="1" result="shadowInnerInner1"/><feColorMatrix values="0 0 0 0 0 0 0 0 0 0 0 0 0 0 0 0 0 0 0.15 0" in="shadowInnerInner1"/></filter><path d="M47.769 17.247a2.231 2.231 0 00-2.344.188l-9.22 6.763v-4.924c0-.855-.475-1.638-1.23-2.027a2.23 2.23 0 00-2.343.188L13.928 31.159A2.28 2.28 0 0013 33c0 .727.344 1.41.928 1.84l18.704 13.726a2.233 2.233 0 002.344.186 2.276 2.276 0 001.23-2.025V41.8l9.22 6.766a2.23 2.23 0 002.344.185A2.275 2.275 0 0049 46.727V19.274a2.283 2.283 0 00-1.231-2.027z" id="d"/></defs><g fill="none" fill-rule="evenodd"><circle stroke="url(#a)" fill="url(#b)" cx="33" cy="33" r="32.5"/><use fill="#000" filter="url(#c)" xlink:href="#d"/><use fill="url(#e)" xlink:href="#d"/><use fill="#000" filter="url(#f)" xlink:href="#d"/></g></svg>
